svgs/regular/filters.svg

<svg xmlns="http://www.w3.org/2000/svg" viewBox="0 0 640 512"><!-- Font Awesome Pro 6.0.0-alpha2 by @fontawesome - https://fontawesome.com License - https://fontawesome.com/license (Commercial License) --><path d="M255.997 317.545V422.18L191.997 366.385V317.541L50.741 144H191.692L177.843 126.984C170.15 117.811 165.583 107.102 162.841 96H46.655C28.187 96 11.968 106.234 4.298 122.719C-3.202 138.719 -0.765 157.156 10.657 170.781L143.999 334.607V377.625C143.999 390.172 150.169 401.922 160.513 409.094L242.81 472.641C249.982 477.594 257.56 480 265.403 480C286.683 480 303.995 462.812 303.995 441.656V334.613L303.999 334.609V281.984L294.474 270.281L255.997 317.545ZM635.712 58.719C628.026 42.234 611.776 32 593.339 32H238.655C220.187 32 203.968 42.234 196.298 58.719C188.798 74.719 191.235 93.156 202.657 106.781L335.999 270.607V345.625C335.999 358.172 342.169 369.922 352.513 377.094L434.81 440.641C441.982 445.594 449.56 448 457.403 448C478.683 448 495.995 430.812 495.995 409.656V270.613L629.495 106.625C640.728 93.156 643.196 74.719 635.712 58.719ZM447.997 253.545V390.18L383.997 340.76V253.541L242.741 80H589.275L447.997 253.545Z"/></svg>

<svg xmlns="http://www.w3.org/2000/svg" viewBox="0 0 640 512"><!--! Font Awesome Pro 6.0.0-alpha3 by @fontawesome - https://fontawesome.com License - https://fontawesome.com/license (Commercial License) --><path d="M255.1 317.5v104.6l-64-55.79V317.5L50.74 144h140.1L177.8 126.1C170.2 117.8 165.6 107.1 162.8 96H46.66C28.19 96 11.97 106.2 4.299 122.7c-7.5 16-5.062 34.44 6.359 48.06L144 334.6v43.02c0 12.55 6.17 24.3 16.51 31.47l82.3 63.55C249.1 477.6 257.6 480 265.4 480c21.28 0 38.59-17.19 38.59-38.34L304 281.1L294.5 270.3L255.1 317.5zM635.7 58.72C628 42.23 611.8 32 593.3 32H238.7C220.2 32 203.1 42.23 196.3 58.72c-7.5 16-5.062 34.44 6.359 48.06L336 270.6v75.02c0 12.55 6.17 24.3 16.51 31.47l82.3 63.55C441.1 445.6 449.6 448 457.4 448c21.28 0 38.59-17.19 38.59-38.34V270.6l133.5-163.1C640.7 93.16 643.2 74.72 635.7 58.72zM447.1 253.5v136.6l-64-49.42V253.5L242.7 80H589.3L447.1 253.5z"/></svg>
